X: 1
I: linebreak $
T: Aras
T: for two
C: Richard Schweitzer, CC BY-NC-SA 3.0
P: ABBCCDEF
N: Permission granted to copy within the SCA.
K: C major
M: 6/8
L: 1/8
P: A
"^Drone: C/G"F2F A2G | F2D C3 | D2D C2C | D2D C3 | D2D C2C | F2G A2F | 
D2D C2C | F2G A3 |: 
P: B
c2c A2A | G2A _B2A | A3 G3 :: 
P: C
A3 A2F | 
G2_B A2G :| 
P: D
F2F AGF | G2_B A2G | F2F AGF | G2A _B3 || 
P: E
c2c A2A | 
G2A _BAG | c2c A2A | G2A _B3 || 
M: 9/8
P: F
c3 d3 c3 | 
M: 6/8
cA2 _BG2 | F6 |] 

